storage/app/icons/phosphoricons/bold/towel-bold.svg

<svg xmlns="http://www.w3.org/2000/svg" viewBox="0 0 256 256" fill="currentColor"><path d="M197.16,20c-.47,0-.93,0-1.39,0H72A28,28,0,0,0,44,48V216a20,20,0,0,0,20,20H168a20,20,0,0,0,20-20V52A8,8,0,0,1,196,44h.35a8.33,8.33,0,0,1,7.7,8.48V148a12,12,0,0,0,24,0V52.48A32.13,32.13,0,0,0,197.16,20ZM72,44h93a32.24,32.24,0,0,0-1,8V172H68V48A4,4,0,0,1,72,44ZM68,212V196h96v16Z"/></svg>

<svg xmlns="http://www.w3.org/2000/svg" fill="currentColor" viewBox="0 0 256 256"><path d="M197.16 20H72a28 28 0 0 0-28 28v168a20 20 0 0 0 20 20h104a20 20 0 0 0 20-20V52a8 8 0 0 1 8-8h.35a8.33 8.33 0 0 1 7.7 8.48V148a12 12 0 0 0 24 0V52.48A32.13 32.13 0 0 0 197.16 20M72 44h93a32.2 32.2 0 0 0-1 8v120H68V48a4 4 0 0 1 4-4m-4 168v-16h96v16Z"/></svg>
